packages/foundations/assets/icons/functional/images/audio & video/subtitles_32.svg

<svg xmlns="http://www.w3.org/2000/svg" width="32" height="32" fill="none"><g clip-path="url(#a)"><path fill="#1A1C1F" fill-rule="evenodd" d="M27 6c1.625 0 3 1.188 3 3v14c0 1.625-1.188 3-3 3H5c-1.594 0-3-1.25-3-2.813V9c0-1.594 1.188-3 3-3zm0 2H5c-.563 0-1 .375-1 1v14c0 .5.375 1 .875 1H27c.5 0 1-.313 1-1V9c0-.5-.313-1-1-1M7 20c0-.469.436-.984 1-.985L19 19c.563 0 1 .438 1 1 0 .5-.313 1-1 1H8c-.563 0-1-.438-1-1m0-4c0-.5.375-1 1-1h8c.563 0 1 .438 1 1 0 .5-.438 1-1 1H8c-.563 0-1-.438-1-1m12 0c0-.5.313-1 1-1h4c.563 0 1 .438 1 1 0 .5-.313 1-1 1h-4c-.563 0-1-.438-1-1m3 4c0-.5.438-1 1-1h1c.563 0 1 .438 1 1 0 .5-.438 1-1 1h-1c-.563 0-1-.438-1-1" clip-rule="evenodd"/></g><defs><clipPath id="a"><path fill="#fff" d="M0 0h32v32H0z"/></clipPath></defs></svg>

<svg width="32" height="32" viewBox="0 0 32 32" fill="none" xmlns="http://www.w3.org/2000/svg">
<g clip-path="url(#clip0_184_408)">
<path fill-rule="evenodd" clip-rule="evenodd" d="M27 6C28.625 6 30 7.188 30 9V23C30 24.625 28.812 26 27 26H5C3.406 26 2 24.75 2 23.187V9C2 7.406 3.188 6 5 6H27ZM27 8H5C4.437 8 4 8.375 4 9V23C4 23.5 4.375 24 4.875 24H27C27.5 24 28 23.687 28 23V9C28 8.5 27.687 8 27 8ZM7 20C7 19.531 7.436 19.016 8 19.015L19 19C19.563 19 20 19.438 20 20C20 20.5 19.687 21 19 21H8C7.437 21 7 20.562 7 20ZM7 16C7 15.5 7.375 15 8 15H16C16.563 15 17 15.438 17 16C17 16.5 16.562 17 16 17H8C7.437 17 7 16.562 7 16ZM19 16C19 15.5 19.313 15 20 15H24C24.563 15 25 15.438 25 16C25 16.5 24.687 17 24 17H20C19.437 17 19 16.562 19 16ZM22 20C22 19.5 22.438 19 23 19H24C24.563 19 25 19.438 25 20C25 20.5 24.562 21 24 21H23C22.437 21 22 20.562 22 20Z" fill="#1A1C1F"/>
</g>
<defs>
<clipPath id="clip0_184_408">
<rect width="32" height="32" fill="white"/>
</clipPath>
</defs>
</svg>
